assets/img/braze_icons/copy-05.svg

<svg fill="none" height="24" viewBox="0 0 24 24" width="24" xmlns="http://www.w3.org/2000/svg"><g fill="#801ed7"><path clip-rule="evenodd" d="m5.16146 17h7.67704c.5272 0 .982 0 1.3565-.0306.3954-.0323.7886-.1036 1.167-.2964.5645-.2876 1.0234-.7465 1.311-1.311.1928-.3784.2641-.7716.2964-1.167.0306-.3745.0306-.8293.0306-1.3564v-7.67714c0-.52713 0-.98193-.0306-1.35649-.0323-.39534-.1036-.78856-.2964-1.16694-.2876-.56449-.7465-1.02343-1.311-1.31105-.3784-.19279-.7716-.26411-1.167-.29641-.3745-.030602-.8292-.030586-1.3564-.03057h-7.67712c-.52711-.000016-.98196-.000032-1.35651.03057-.39534.0323-.78856.10362-1.16694.29641-.56449.28762-1.02343.74656-1.31105 1.31105-.19279.37838-.26411.7716-.29641 1.16694-.030605.37458-.030588.82935-.03057 1.35651v7.67702c-.000018.5272-.000035.982.03057 1.3565.0323.3954.10362.7886.29641 1.167.28762.5645.74656 1.0234 1.31105 1.311.37838.1928.7716.2641 1.16694.2964.37456.0306.82935.0306 1.35649.0306z" fill-rule="evenodd"/><path d="m18.8385 23h-7.677c-.5272 0-.982 0-1.35652-.0306-.39535-.0323-.78857-.1036-1.16695-.2964-.56448-.2876-1.02342-.7465-1.31104-1.311-.1928-.3784-.26412-.7716-.29642-1.167-.02743-.3358-.03026-.736-.03054-1.195h5.88087c.4886.0001 1.0184.0002 1.477-.0372.519-.0424 1.2047-.1474 1.9121-.5078.9408-.4794 1.7057-1.2443 2.185-2.1851.3604-.7073.4654-1.393.5078-1.912.0375-.4586.0373-.9884.0372-1.4771v-5.88077c.459.00028.8593.00311 1.195.03054.3954.0323.7886.10362 1.167.29641.5645.28762 1.0234.74656 1.311 1.31105.1928.37838.2641.7716.2964 1.16694.0306.37453.0306.82923.0306 1.35643v7.6771c0 .5271 0 .982-.0306 1.3565-.0323.3954-.1036.7886-.2964 1.167-.2876.5645-.7465 1.0234-1.311 1.311-.3784.1928-.7716.2641-1.167.2964-.3745.0306-.8293.0306-1.3565.0306z"/></g></svg>

<svg width="24" height="24" viewBox="0 0 24 24" fill="none" xmlns="http://www.w3.org/2000/svg">
<path fill-rule="evenodd" clip-rule="evenodd" d="M5.16146 17H12.8385C13.3657 17 13.8205 17 14.195 16.9694C14.5904 16.9371 14.9836 16.8658 15.362 16.673C15.9265 16.3854 16.3854 15.9265 16.673 15.362C16.8658 14.9836 16.9371 14.5904 16.9694 14.195C17 13.8205 17 13.3657 17 12.8386V5.16146C17 4.63433 17 4.17953 16.9694 3.80497C16.9371 3.40963 16.8658 3.01641 16.673 2.63803C16.3854 2.07354 15.9265 1.6146 15.362 1.32698C14.9836 1.13419 14.5904 1.06287 14.195 1.03057C13.8205 0.999968 13.3658 0.999984 12.8386 1H5.16148C4.63437 0.999984 4.17952 0.999968 3.80497 1.03057C3.40963 1.06287 3.01641 1.13419 2.63803 1.32698C2.07354 1.6146 1.6146 2.07354 1.32698 2.63803C1.13419 3.01641 1.06287 3.40963 1.03057 3.80497C0.999965 4.17955 0.999982 4.63432 1 5.16148V12.8385C0.999982 13.3657 0.999965 13.8205 1.03057 14.195C1.06287 14.5904 1.13419 14.9836 1.32698 15.362C1.6146 15.9265 2.07354 16.3854 2.63803 16.673C3.01641 16.8658 3.40963 16.9371 3.80497 16.9694C4.17953 17 4.63432 17 5.16146 17Z" fill="#801ED7"/>
<path d="M18.8385 23H11.1615C10.6343 23 10.1795 23 9.80498 22.9694C9.40963 22.9371 9.01641 22.8658 8.63803 22.673C8.07355 22.3854 7.61461 21.9265 7.32699 21.362C7.13419 20.9836 7.06287 20.5904 7.03057 20.195C7.00314 19.8592 7.00031 19.459 7.00003 19L12.8809 19C13.3695 19.0001 13.8993 19.0002 14.3579 18.9628C14.8769 18.9204 15.5626 18.8154 16.27 18.455C17.2108 17.9756 17.9757 17.2107 18.455 16.2699C18.8154 15.5626 18.9204 14.8769 18.9628 14.3579C19.0003 13.8993 19.0001 13.3695 19 12.8808L19 7.00003C19.459 7.00031 19.8593 7.00314 20.195 7.03057C20.5904 7.06287 20.9836 7.13419 21.362 7.32698C21.9265 7.6146 22.3854 8.07354 22.673 8.63803C22.8658 9.01641 22.9371 9.40963 22.9694 9.80497C23 10.1795 23 10.6342 23 11.1614V18.8385C23 19.3656 23 19.8205 22.9694 20.195C22.9371 20.5904 22.8658 20.9836 22.673 21.362C22.3854 21.9265 21.9265 22.3854 21.362 22.673C20.9836 22.8658 20.5904 22.9371 20.195 22.9694C19.8205 23 19.3657 23 18.8385 23Z" fill="#801ED7"/>
</svg>
